X:1
T:Title
L:1/8
Q:1/4=120
M:4/4
K:Bb
V:1 treble nm="Church Organ, Staff"
V:1
 F2 G2 F2 B2 | c2 d2- d/ z/ c B2 | F2 A2 F2 c2 | d2 e2- e/ z/ d c2 | c2 dc de d2 | c2 BA Bc A2 | %6
w: By~C.~Simper * * *||||||
 F2 D2 AG F2 | =E2 F4 F2 | FG A2 AB c2 | cd e2- e/ z/ d c2 | dc B2- B/ z/ A B2 | %11
w: |||||
 cB A2- A/ z/ G A2 | F2 BA Bc d2 | B2 c=B cd e2 | c2 A2- A/ z/ B c2 | d2 B4 B2 |] %16
w: |||||

